X:7816
T:Jacky Daly's
R:reel
S:Patsy Broderick
H:
N:
D:Arcady
Z:Adrian Scahill
M:4/4
L:1/8
K:D
EGB,E DE (3FED|E2 Bc dBAF|EGB,E (3DED CD|B,CDE FAGF|\
EBGE DAFD|=CDEC B,2CB,|A,B,=CE DEFB|1 AFDF E2 GF:|2 AFDF E3A||\
B=ceg fede|fagf edBA|GFGA BABc|dcde dBA=c|\
B=cBG ABAF|GAGE F2(3A,A,A,|A,B,=CE DEFB|AFDF E3A:||
